dist/images/icons/dark-star.svg

<svg width="19" height="19" viewBox="0 0 19 19" fill="none" xmlns="http://www.w3.org/2000/svg">
<path d="M9.29964 0.180494C9.33793 -0.045132 9.66207 -0.0451332 9.70036 0.180493L10.4771 4.75689C10.5068 4.93211 10.7313 4.98743 10.8391 4.8461L13.6536 1.15487C13.7923 0.972889 14.0793 1.12352 14.0084 1.3411L12.5694 5.75426C12.5143 5.92323 12.6874 6.07653 12.8485 6.00147L17.056 4.04102C17.2634 3.94437 17.4476 4.21112 17.2836 4.37081L13.9586 7.60974C13.8313 7.73375 13.9132 7.94991 14.0908 7.95831L18.7274 8.17776C18.956 8.18858 18.9951 8.51035 18.7757 8.57556L14.3263 9.89825C14.1559 9.94889 14.1281 10.1784 14.2814 10.2683L18.2849 12.6174C18.4823 12.7332 18.3674 13.0363 18.1428 12.9921L13.5884 12.0955C13.414 12.0612 13.2827 12.2515 13.3766 12.4023L15.8299 16.3429C15.9509 16.5372 15.7083 16.7521 15.53 16.6086L11.9139 13.6982C11.7754 13.5868 11.5707 13.6942 11.5838 13.8715L11.9248 18.5007C11.9417 18.729 11.6269 18.8066 11.5358 18.5966L9.6864 14.3391C9.61559 14.1761 9.38441 14.1761 9.3136 14.3391L7.46423 18.5966C7.37306 18.8066 7.05834 18.729 7.07516 18.5007L7.4162 13.8715C7.42925 13.6942 7.22455 13.5868 7.0861 13.6982L3.47 16.6086C3.29171 16.7521 3.0491 16.5372 3.17005 16.3429L5.62337 12.4023C5.7173 12.2515 5.58597 12.0612 5.41159 12.0955L0.857159 12.9921C0.632616 13.0363 0.517676 12.7332 0.71506 12.6174L4.71863 10.2683C4.87192 10.1784 4.84405 9.94889 4.67369 9.89825L0.224293 8.57556C0.00492775 8.51035 0.0439967 8.18858 0.272593 8.17776L4.90924 7.95831C5.08677 7.94991 5.16875 7.73375 5.04144 7.60974L1.71638 4.37081C1.55245 4.21112 1.73657 3.94437 1.94401 4.04102L6.15155 6.00147C6.31264 6.07653 6.48569 5.92323 6.43059 5.75426L4.9916 1.3411C4.92065 1.12352 5.20766 0.972889 5.34642 1.15487L8.16094 4.8461C8.2687 4.98743 8.49317 4.93211 8.52291 4.75689L9.29964 0.180494Z" fill="#0039C8"/>
</svg>

<svg xmlns="http://www.w3.org/2000/svg" width="19" height="19" fill="none"><path fill="#0039C8" d="M9.3.18c.038-.225.362-.225.4 0l.777 4.577c.03.175.254.23.362.09l2.815-3.692c.138-.182.425-.031.354.186L12.57 5.754a.203.203 0 0 0 .28.247l4.207-1.96c.207-.097.392.17.228.33L13.959 7.61a.203.203 0 0 0 .132.348l4.636.22c.229.01.268.332.049.398l-4.45 1.322a.203.203 0 0 0-.045.37l4.004 2.35c.197.115.082.418-.142.374l-4.555-.897a.203.203 0 0 0-.211.307l2.453 3.94c.12.195-.122.41-.3.267l-3.616-2.91a.203.203 0 0 0-.33.172l.34 4.63c.018.228-.297.306-.388.096l-1.85-4.258a.203.203 0 0 0-.372 0l-1.85 4.258c-.09.21-.406.132-.389-.096l.341-4.63a.203.203 0 0 0-.33-.173l-3.616 2.91c-.178.144-.42-.07-.3-.265l2.453-3.94a.203.203 0 0 0-.211-.308l-4.555.897c-.224.044-.34-.259-.142-.375l4.004-2.349a.203.203 0 0 0-.045-.37L.224 8.576c-.22-.066-.18-.387.049-.398l4.636-.22a.203.203 0 0 0 .132-.348L1.716 4.37c-.164-.159.02-.426.228-.329l4.208 1.96a.203.203 0 0 0 .279-.247L4.99 1.341c-.07-.217.217-.368.355-.186l2.815 3.691a.203.203 0 0 0 .362-.09z"/></svg>
